X: 271
T: Gypsy
C: Dave Tarras
S: printed MS of unknown origin
Z: 2007 John Chambers <jc:trillian.mit.edu>
M: 4/4
L: 1/8
K: Ephr^G
B (3Bc^d \
"^A"\
| "E"e2 B6 | "Am"c3 B AG A^A \
| "E"B2 G3 E GB | "Dm"d4 cB (3AGA | "E"B4 zB (3Bc^d
| "E"e2 B6 | "Am"c3 B AG A^A \
| "E"B2 G3 E GB | "Dm"A2 G2 F2 G2 | "E"E4 z :|
E GB \
"^B"\
| "Dm"^c2 d2 d2 d2 | d4 z_d cB \
| "Am"B2 c2 c2 c2 | c4 z B/c/ d/c/B/A/
| "E"B2 G6 | "Dm"ze dc BA (3GA^A \
| "E"B6 (3EGB | "Dm"^c2 d2 d2 d2
| "Dm"f4 ed (3cBA | "E"B2 G3 E GB \
| "Dm"A2 G2 F2 G2 | "E"E4 "^fine"z |]



